res/skins/Tango/buttons/btn_pfl_off.svg

<svg xmlns="http://www.w3.org/2000/svg" height="24" width="24"><g fill="#777"><path d="M3.9015223 14.1646l2.9491752-.5499c.4668125-.087.912692.2187.9997305.6855l1.0212075 5.4771c.087039.4668-.2187.9126-.6855125.9997l-2.9491745.5498c-.4668122.087-.9126915-.2187-.9997303-.6855l-1.0212084-5.477c-.087038-.4668.2187003-.9127.6855125-.9997z"/><path d="M12 3.308c-4.789765 0-8.6919643 3.9021-8.6919643 8.692 0 .5476.049969 1.0745.1473214 1.5937.4145223 2.2572.8436176 4.5115 1.2857143 6.7634l1.8883931-.3616c-.4077185-2.3044-.958775-4.7542-1.2857145-6.8705-.063201-.3685-.107143-.7353-.107143-1.125 0-3.7474 3.0160765-6.7634 6.763393-6.7634 3.747317 0 6.763393 3.016 6.763393 6.7634 0 .3897-.04394.7565-.107143 1.125-.32694 2.1163-.877996 4.5661-1.285715 6.8705l1.888393.3616c.442097-2.2519.871192-4.5062 1.285715-6.7634.09735-.5192.147321-1.0461.147321-1.5937 0-4.7899-3.902199-8.692-8.691964-8.692z" style="block-progression:tb;text-indent:0;text-align:start;text-transform:none" color="#000"/><path d="M20.098478 14.1646l-2.949176-.5499c-.466812-.087-.912692.2187-.99973.6855l-1.021207 5.4771c-.08704.4668.2187.9127.685512.9997l2.949175.5499c.466812.087.912691-.2187.99973-.6856l1.021208-5.4771c.08704-.4667-.2187-.9126-.685512-.9996z"/></g></svg>

<?xml version="1.0" encoding="UTF-8" standalone="no"?>
<!-- Created with Inkscape (http://www.inkscape.org/) -->

<svg
   xmlns:dc="http://purl.org/dc/elements/1.1/"
   xmlns:cc="http://creativecommons.org/ns#"
   xmlns:rdf="http://www.w3.org/1999/02/22-rdf-syntax-ns#"
   xmlns:svg="http://www.w3.org/2000/svg"
   xmlns="http://www.w3.org/2000/svg"
   version="1.1"
   width="24"
   height="24"
   id="svg14074">
  <metadata
     id="metadata14088">
    <rdf:RDF>
      <cc:Work
         rdf:about="">
        <dc:format>image/svg+xml</dc:format>
        <dc:type
           rdf:resource="http://purl.org/dc/dcmitype/StillImage" />
        <dc:title></dc:title>
      </cc:Work>
    </rdf:RDF>
  </metadata>
  <defs
     id="defs14086" />
  <g
     id="g14076"
     style="fill:#777777;fill-opacity:1">
    <path
       d="m 3.9015223,14.1646 2.9491752,-0.5499 c 0.4668125,-0.087 0.912692,0.2187 0.9997305,0.6855 l 1.0212075,5.4771 c 0.087039,0.4668 -0.2187,0.9126 -0.6855125,0.9997 L 5.2369485,21.3268 C 4.7701363,21.4138 4.324257,21.1081 4.2372182,20.6413 l -1.0212084,-5.477 c -0.087038,-0.4668 0.2187003,-0.9127 0.6855125,-0.9997 z"
       id="path14078"
       style="fill:#777777;fill-opacity:1" />
    <path
       d="m 12,3.308 c -4.789765,0 -8.6919643,3.9021 -8.6919643,8.692 0,0.5476 0.049969,1.0745 0.1473214,1.5937 0.4145223,2.2572 0.8436176,4.5115 1.2857143,6.7634 L 6.6294645,19.9955 C 6.221746,17.6911 5.6706895,15.2413 5.34375,13.125 5.280549,12.7565 5.236607,12.3897 5.236607,12 5.236607,8.2526 8.2526835,5.2366 12,5.2366 c 3.747317,0 6.763393,3.016 6.763393,6.7634 0,0.3897 -0.04394,0.7565 -0.107143,1.125 -0.32694,2.1163 -0.877996,4.5661 -1.285715,6.8705 l 1.888393,0.3616 C 19.701025,18.1052 20.13012,15.8509 20.544643,13.5937 20.641993,13.0745 20.691964,12.5476 20.691964,12 20.691964,7.2101 16.789765,3.308 12,3.308 z"
       id="path14080"
       style="text-indent:0;text-align:start;text-transform:none;block-progression:tb;color:#000000;fill:#777777;fill-opacity:1" />
    <path
       d="m 20.098478,14.1646 -2.949176,-0.5499 c -0.466812,-0.087 -0.912692,0.2187 -0.99973,0.6855 l -1.021207,5.4771 c -0.08704,0.4668 0.2187,0.9127 0.685512,0.9997 l 2.949175,0.5499 c 0.466812,0.087 0.912691,-0.2187 0.99973,-0.6856 l 1.021208,-5.4771 c 0.08704,-0.4667 -0.2187,-0.9126 -0.685512,-0.9996 z"
       id="path14082"
       style="fill:#777777;fill-opacity:1" />
  </g>
</svg>
